X:20601
T:News of the Victory, The
R:Jig
B:Tuneworks Tunebook 2 (https://www.tuneworks.co.uk/)
G:Tuneworks
Z:Jon Warbrick <jon.warbrick@googlemail.com>
M:6/8
L:1/8
K:G
|: d | "G" d^cd d^cd | "G" g2 G G2 B | "D" ABc DEF | "G" G2 B d2 d |
"G" d^cd d^cd | "G" g2 G G2 B | "D" ABc DEF | "G" G3 G2 :|
|: g | "D" f2 e d2 c | "G" Bcd GAB | "D" ABc DEF | "G" G2 B d2 g |
"D" f2 e d2 c | "G" Bcd G2 B | "D" ABc DEF | "G" G3 G2 :|
